app/images/dist/message-tick.svg

<svg width="48" height="48" viewBox="0 0 48 48" fill="none" xmlns="http://www.w3.org/2000/svg">
<path d="M44 14.8599V26.8599C44 29.8599 43 32.3599 41.24 34.1199C39.5 35.8599 37 36.8599 34 36.8599V41.1199C34 42.7199 32.22 43.6799 30.9 42.7999L22 36.8599H17.76C17.92 36.2599 18 35.6399 18 34.9999C18 32.9599 17.22 31.0799 15.94 29.6599C14.5 28.0199 12.36 26.9999 10 26.9999C7.76 26.9999 5.72001 27.9199 4.26001 29.4199C4.08001 28.6199 4 27.7599 4 26.8599V14.8599C4 8.85986 8 4.85986 14 4.85986H34C40 4.85986 44 8.85986 44 14.8599Z" stroke="#DC143C" stroke-width="1.5" stroke-miterlimit="10" stroke-linecap="round" stroke-linejoin="round"/>
<path d="M18 35C18 36.5 17.58 37.92 16.84 39.12C16.42 39.84 15.88 40.48 15.26 41C13.86 42.26 12.02 43 10 43C7.08 43 4.53997 41.44 3.15997 39.12C2.41997 37.92 2 36.5 2 35C2 32.48 3.16 30.22 5 28.76C6.38 27.66 8.12 27 10 27C14.42 27 18 30.58 18 35Z" stroke="#DC143C" stroke-width="1.5" stroke-miterlimit="10" stroke-linecap="round" stroke-linejoin="round"/>
<path d="M6.87988 35L8.85986 36.98L13.1199 33.04" stroke="#DC143C" stroke-width="1.5" stroke-linecap="round" stroke-linejoin="round"/>
<path d="M17 21H31" stroke="#DC143C" stroke-width="1.5" stroke-miterlimit="10" stroke-linecap="round" stroke-linejoin="round"/>
</svg>

<svg width="48" height="48" fill="none" xmlns="http://www.w3.org/2000/svg"><path d="M44 14.86v12c0 3-1 5.5-2.76 7.26C39.5 35.86 37 36.86 34 36.86v4.26c0 1.6-1.78 2.56-3.1 1.68L22 36.86h-4.24c.16-.6.24-1.22.24-1.86 0-2.04-.78-3.92-2.06-5.34A7.888 7.888 0 0 0 10 27c-2.24 0-4.28.92-5.74 2.42-.18-.8-.26-1.66-.26-2.56v-12c0-6 4-10 10-10h20c6 0 10 4 10 10Z" stroke="#DC143C" stroke-width="1.5" stroke-miterlimit="10" stroke-linecap="round" stroke-linejoin="round"/><path d="M18 35c0 1.5-.42 2.92-1.16 4.12-.42.72-.96 1.36-1.58 1.88A7.81 7.81 0 0 1 10 43a7.94 7.94 0 0 1-6.84-3.88A7.842 7.842 0 0 1 2 35c0-2.52 1.16-4.78 3-6.24A8.005 8.005 0 0 1 10 27c4.42 0 8 3.58 8 8Z" stroke="#DC143C" stroke-width="1.5" stroke-miterlimit="10" stroke-linecap="round" stroke-linejoin="round"/><path d="m6.88 35 1.98 1.98 4.26-3.94" stroke="#DC143C" stroke-width="1.5" stroke-linecap="round" stroke-linejoin="round"/><path d="M17 21h14" stroke="#DC143C" stroke-width="1.5" stroke-miterlimit="10" stroke-linecap="round" stroke-linejoin="round"/></svg>
